X:1
T:Alma che fai che pensi
T:Luca Marenzio
T:Source : Il primo libro delle Villanelle a tre voci---Venetia---G.Vincenzi---1586. Editor : André Vierendeels (08/05/17).
T:Notes : Original clefs : C1, C2, F4 Editorial accidentals above the staff "Terza impressione" m 13 in S 2 : "D" notated as whole note in original print      
T:Alma che fai che pensi
T:©
T:©
C:Luca Marenzio
Z:©
%%score [ 1 2 3 ]
L:1/8
Q:1/4=120
M:4/4
K:C
V:1 treble nm="Soprano 1" snm="S 1"
V:2 treble nm="Soprano 2" snm="S 2"
V:3 bass nm="Bass" snm="B"
V:1
"^1)" G8 | G4 A4 | B8 | A4 c4- | c4 B2 G2- | G2 G2 A4 | G8 :: z2 A2 A4- | A2 B2 c2 d2 | e4 e4 | %10
w: Al-|ma, che|fai|che pen-|* si'o- ve|_ ri- po-|si,|quei lu-|* mi glo- ri-|o- si,|
w: Al-|ma, che|fai|di quel|_ vi- va|_ ce fo-|co,|che mai|_ mi da- va|lo- co,|
 z4 c4- | c2 c2 c4- | c2 Bc d4 | B2 e3 d c2- | cB G2 A2 B2- | BA G2 A4 | G8 :| %17
w: ahi,|_ per- che|_ piu non mi-|ri, tan- ti spar-|* si da me gra-|* vi so- spi-|ri|
w: che|_ fian del-|* le fa- vil-|le, che ren- de-|* vi'al mio cor a|_ mil- le'a- mil-|le.|
V:2
"^2)""^1)" E8 | E4 ^F4 | G8 | F4 A4- | A4 G2 E2- | E2 G4 ^F2 | G8 ::"^-natural" z2 F2 F4- | %8
w: Al-|ma, che|fai|che pen-|* si'o- ve|_ ri- po-|si,|quei lu-|
w: Al-|ma'o- ve|son|le la-|* gri- me|_ co- cen-|ti,|di que-|
 F2 G2 A2 B2 | c4 G4 | z4 A4- | A2 A2 A4- | A2 GA D4 | G2 c3 B A2- | AG G2 ^F2 G2- | GE G4 ^F2 | %16
w: * mi glo- ri-|o- si,|ahi,|_ per- che|_ piu non mi-|ri, tan- ti spar-|* si da me gra-|* vi so- spi-|
w: * sti'oc- chi tuoi'ar-|den- ti,|non|_ piu già|_ co- gli quel-|.le. Co- me fa-|* ce- vi con tue|lab- bia bel- *|
 G8 :| %17
w: ri.|
w: le.|
V:3
"^3)""^1)""^4)" C,8 | C,4 A,,4 | G,,8 | D,4 A,,4- | A,,4 E,2 C,2- | C,2 C,2 D,4 | G,,8 :: %7
w: Al-|ma, che|fai|che pen-|* sio- ve|_ ri- po-|si,|
w: Al-|ma, quest'|al-|ma co-|* me'ar- den-|* te fa-|ce,|
 D,4 D,4- | D,2 E,2 F,2 G,2 | C,4 C,4 | F,6 F,2 | F,6 E,F, | G,8 | G,2 C,3 D, F,2- | %14
w: quei lu-|* mi glo- ri-|o- si,|ahi, per-|che piu non|mi-|ri, tan- ti spar-|
w: pian'- pia-|* no si dis-|fa- ce:|E pie-|tà'hor- mai ti|chie-|de, e ve- drà|
 F,G, E,2 D,2 B,,2- | B,,C, E,2 D,4 | G,,8 :| %17
w: * si da me gra-|* vi so- spi-|ri.|
w: _ s'ho- ra'in te re-|* gna mer- ce-|de.|

